X: 879
T: Larry Grogan
B:O'Neill's 879
Z:Transcribed by Dan G. Petersen, dangp@post6.tele.dk
M:6/8
L:1/8
K:G
(d/c/)|BGB BGB|AFA ABc|ded cAF|GBd g2(d/c/)|
BGB BGB|AFA ABc|(d/e/f)d cAF|GAG G2:|
(d/e/)|=f3 edc|Bcd dBG|=f3 e^fg|A>BAA2 (d/e/)|
=f3 edc|Bcd dBG|(d/e/f)d cAF|GAG G2:|


